X: 4251
T: Panmure House.   a Strathspey.
O: Very Old
%R: strathspey, air
B: Niel Gow & Sons "Complete Repository" v.4 p.25 #1
Z: 2021 John Chambers <jc:trillian.mit.edu>
M: C
L: 1/8
K: A
% - - - - - - - - - -
% Voice 1 formatted for compactness and proofreading.
V: 1 staves=2
c/B/ |\
A<A,A,>B, ~C>D~E>^F | G<GB>A ~G2 Gc/B/ |\
A<A,A,>B, ~C>DEc/d/ | e>cd>B A2 Ac/B/ ||\
A<A,A,>B, ~C>D~E>^F | G<GB>A ~G2 Gc/d/ |
e>cd>B c>AB>G | E>A (c/B/).A/.^G/ A2A |[| c/B/ |\
Aa~a>b g>g (a/g/)^f/g/ | eaab (Tg3/^f//g//) .f>g |\
ea~a>b g>g (a/g/^f/)g/ |
e>cd>B A3 c/B/ ||\
Aa~a>b g>g a/g/^f/g/ | ea~a>b (Tg3/^f//g//) f>g |\
(3ag^f (3gab (3edc (3Bcd | e>cd>B A2 A |]
% - - - - - - - - - -
% Voice 2 preserves the book's staff layout.
V: 2 clef=bass middle=d
z |\
A2A2 A2A2 | G2G2 G2G2 | A2E2 A>Bcd | e2E2 A2Az || A2A2 A2A2 |
G2G2 G2Gz | A2B2 c2d2 | e2E2 A2A |[| z |\
[a2A2][a2A2] [a2A2][a2A2] | [a2A2][a2A2] [g2G2]z2 | [a2A2][a2A2] [g2G2][g2G2] |
[e2E2][e2E2] [A2A,2][AA,]z || [a2A2][a2A2] [g2G2][g2G2] | [a2A2][a2A2] [g2G2]z2 |\
[A2A,2][B2B,2] [c2C2][d2D2] | [e2E2][e2E2] [A2A,2][AA,] |]


